Sources/FrostedUI/Resources/Icons.xcassets/tShirtFilled12.imageset/t-shirt-filled-12.svg

<svg width="12" height="12" viewBox="0 0 12 12" fill="none" xmlns="http://www.w3.org/2000/svg" data-fui-icon="true">
  <g clip-path="url(#clip0_6288_113)">
    <path
      d="M4.16565 0.786133C4.36207 0.722788 4.5777 0.743178 4.76038 0.844727C4.96647 0.959399 5.10609 1.1642 5.13831 1.39746C5.13844 1.39833 5.13853 1.40115 5.13928 1.40527C5.13969 1.40746 5.14063 1.41005 5.14124 1.41309C5.14487 1.43137 5.15283 1.46302 5.16467 1.50293C5.18918 1.58548 5.22941 1.69037 5.2926 1.78906C5.40135 1.95882 5.58262 2.13663 5.99963 2.13672C6.41675 2.13672 6.59788 1.95881 6.70667 1.78906C6.76988 1.69038 6.81007 1.5855 6.83459 1.50293C6.84642 1.46306 6.85439 1.43139 6.85803 1.41309C6.85863 1.41007 6.85957 1.40745 6.85999 1.40527V1.4043L6.85901 1.40527L6.86096 1.39746C6.89316 1.16429 7.03293 0.95943 7.23889 0.844727C7.44766 0.728575 7.69952 0.718713 7.91663 0.818359L11.36 2.40137C11.9241 2.66091 12.1615 3.33585 11.8844 3.8916L11.0963 5.4707C10.8822 5.8997 10.4199 6.13346 9.95764 6.06738V9.875C9.95763 10.4962 9.45379 10.9998 8.83264 11H3.16663C2.54562 10.9996 2.04164 10.4961 2.04163 9.875V6.06738C1.57946 6.13331 1.11703 5.89969 0.902954 5.4707L0.114868 3.8916C-0.162055 3.33597 0.0753631 2.66099 0.639282 2.40137L4.08264 0.818359L4.16565 0.786133Z"
      fill="currentColor"
    />
  </g>
  <defs>
    <clipPath id="clip0_6288_113"><path fill="currentColor" d="M0 0H12V12H0z" /></clipPath>
  </defs>
</svg>

<svg xmlns="http://www.w3.org/2000/svg" width="12" height="12" fill="none" data-fui-icon="true" viewBox="0 0 12 12"><g clip-path="url(#a)"><path fill="currentColor" d="M4.166.786a.75.75 0 0 1 .972.611l.001.008.002.008q.006.028.024.09c.024.082.064.187.128.286.108.17.29.348.707.348s.598-.178.707-.348a1.1 1.1 0 0 0 .151-.376l.002-.008h-.001l.002-.008A.75.75 0 0 1 7.917.818l3.443 1.583a1.1 1.1 0 0 1 .524 1.49l-.788 1.58a1.1 1.1 0 0 1-1.138.596v3.808c0 .621-.504 1.125-1.125 1.125H3.167a1.126 1.126 0 0 1-1.125-1.125V6.067a1.1 1.1 0 0 1-1.139-.596L.115 3.89a1.1 1.1 0 0 1 .524-1.49L4.083.818z"/></g><defs><clipPath id="a"><path fill="currentColor" d="M0 0h12v12H0z"/></clipPath></defs></svg>
